!!!!SEGMENT: pl-kk--kk-i-382--004-001_anonim--nro-4-rorate-caeli.krn
!!!cenid: 18xx:1472
!!!COM: Anonim
!!!COM-rismID: pe30004985
!!!CDT:
!!!CNT:
!!!OPR: Nro 4
!!!OTL: Rorate Caeli
!!!OMV: 001
!!!PDT:
!!!AGN: Sacred
!!!YEC: Copyright 2022 Narodowy Instytut Fryderyka Chopina (https://polishscores.org)
!!!YEM: License CC-BY-4.0 (https://creativecommons.org/licenses/by/4.0)
!!!SMS-siglum: PL-Kk
!!!SMS-shelfmark: Kk.I.382
!!!SMS-shelfwork: 004-001 M
!!!SMS-variant:
!!!SMS-altvar:
!!!NIFC-rismSourceID: 1001139027
!!!NIFC-rismChildID: 1001139094
!!!NIFC-islandoraID: pl-kk:6162
!!!URL-pdf-islandora: https://repozytorium.nifc.pl/islandora/object/pl-kk%3A6162/datastream/PDF/view
!!!URL-scan: https://polish.musicsources.pl/pl/lokalizacje/galeria/rekopisy/5994 @EN{Scan on Polish Music Sources Website} @PL{Skany w portalu Dziedzictwo Muzyki Polskiej w otwartym dostępie}
!!!IIIF:
!!!ONB-nifc: UWAGA: obsada: S (T 1), T 2, A (B 1), B 2; S (T 1): skan 0011; A (B 1): skan 0155-0156; T 2: skan 0082-0083; B 2: skan 0228
!!!AIN: 1 alto 1 bass 2 tenor
!!!key:
**kern	**text	**dynam	**kern	**text	**kern	**text	**kern	**text
*part4	*	*	*part3	*	*part2	*	*part1	*
*staff4	*	*	*staff3	*	*staff2	*	*staff1	*
*Ibass	*	*	*Itenor	*	*Ialto	*	*Itenor	*
*I"Basso II	*	*	*I"Tenore II	*	*I"Alto vel Basso I	*	*I"Soprano vel Tenore I.	*
*I'B 2	*	*	*I'T 2	*	*I'A (B 1)	*	*I'S (T 1)	*
*clefF4	*	*	*clefC4	*	*clefC3	*	*clefC1	*
*k[]	*	*	*k[]	*	*k[]	*	*k[]	*
*a:	*	*	*a:	*	*a:	*	*a:	*
*M4/4	*	*	*M4/4	*	*M4/4	*	*M4/4	*
*met(C.)	*	*	*met(C.)	*	*met(C.)	*	*met(C.)	*
=1	=1	=1	=1	=1	=1	=1	=1	=1
*2\right	*	*	*2\right	*	*2\right	*	*2\right	*
!LO:TX:a:t=P:problem=w źródle "in Aminor." zapisane przed pierwszym taktem, nad pięciolinią	!	!	!	!	!LO:TX:a:t=P:problem=w źródle "in Aminor." zapisane przed pierwszym taktem, nad pięciolinią	!	!	!
!	!	!	!	!	!	!	!LO:TX:a:t=P:all\right:problem	!
!LO:TX:t=P:problem=all\right&colon; global	!	!	!	!	!LO:TX:a:i:t=in Aminor.	!	!	!
!LO:TX:a:i:t=in Aminor.	!	!	!	!	!LO:TX:a:i:t=Nro. 4 Rorate	!	!	!
!LO:TX:a:t=P:problem=w źródle "Nro 4. Rorate." zapisane przed pierwszym taktem, na pęciolinii	!	!	!LO:TX:a:t=P:problem=w źródle "Nro 4. Rorate in A minor." zapisane przed pierwszym taktem, na pęciolinii	!	!LO:TX:a:t=P:problem=w źródle "Nro. 4 Rorate" zapisane przed pierwszym taktem, na pęciolinii	!	!LO:TX:a:t=P:problem=w źródle ta adnotacja zapisana przed pierwszym taktem, na pęciolinii	!
!LO:TX:a:i:t=Nro 4. Rorate.	!	!	!LO:TX:a:i:t=Nro 4. Rorate\nin A minor.	!	!LO:TX:t=P:problem=all\right&colon; global	!	!LO:TX:a:i:t=Nro. 4. Rorate.\nin A.	!
2A\	Ro-	.	2c\	Ro-	2e\	Ro-	2a\	Ro-
4A\	-ra-	.	4c\	-ra-	4e\	-ra-	4a\	-ra-
4A\	-te	.	4c\	-te	4e\	-te	4a\	-te
=2	=2	=2	=2	=2	=2	=2	=2	=2
!	!LO:MO:mod=cae-	!	!	!LO:MO:mod=cae-	!	!LO:MO:mod=cae-	!	!LO:MO:mod=cae-
2E\	ce-	.	2B\	ce-	2e\	ce-	2g#X\	ce-
4A\	-li	.	4c\	-li	4e\	-li	4a\	-li
4A\	ro-	.	4c\	ro-	4e\	ro-	4a\	ro-
=3	=3	=3	=3	=3	=3	=3	=3	=3
4A\	-ra-	.	4c\	-ra-	4e\	-ra-	4a\	-ra-
4E\	-te	.	4B\	-te	4e\	-te	8g#X\	-te
.	.	.	.	.	.	.	8g#\	ro-
!	!	!	!	!	!	!	!LO:LB:g=original	!
4r	.	.	4r	.	4r	.	4a\	-ra-
4E\	ro-	.	4B\	ro-	4e\	ro-	4b\	-te
=4	=4	=4	=4	=4	=4	=4	=4	=4
!	!	!	!	!	!	!	!	!LO:MO:mod=cae-
4A\	-ra-	.	4c\	-ra-	4e\	-ra-	4cc\	ce-
4B\	-te	.	4d\	-te	4d\	-te	8b\	-li
.	.	.	.	.	.	.	8g#X\	ro-
!	!LO:MO:mod=cae-	!	!	!LO:MO:mod=cae-	!	!LO:MO:mod=cae-	!	!
4c\	ce-	.	4c\	ce-	4e\	ce-	4a\	-ra-
4B\	-li	.	4d\	-li	4d\	-li	4b\	-te
!LO:LB:g=original	!	!	!LO:LB:g=original	!	!LO:LB:g=original	!	!	!
=5	=5	=5	=5	=5	=5	=5	=5	=5
!	!	!	!	!	!	!	!	!LO:MO:mod=cae-
4r	.	.	4r	.	4r	.	4cc\	ce-
4B\	ro-	.	4d\	ro-	4d\	ro-	4b\	-li
4c\	-ra-	.	4c\	-ra-	4e\	-ra-	4r	.
4B\	-te	.	4d\	-te	4d\	-te	4g#X\	ro-
=6	=6	=6	=6	=6	=6	=6	=6	=6
!	!LO:MO:mod=cae-	!	!	!LO:MO:mod=cae-	!	!LO:MO:mod=cae-	!	!
4A\	ce-	.	4c\	ce-	4e\	ce-	4a\	-ra-
4D\	-li	.	(>8d\L	-li	4f\	-li	(>8b\L	-te
.	.	.	8c\J)	.	.	.	8a\J)	.
4.E\	de-	.	4.B\	de-	4.e\	de-	4g#X\	de-
.	.	.	.	.	.	.	4g#\	-su-
8E\	-su-	.	8B\	-su-	8e\	-su-	.	.
=7	=7	=7	=7	=7	=7	=7	=7	=7
4AA/	-per	.	4c\	-per	4e\	-per	4a\	-per
4C/	ro-	.	4e\	ro-	4e\	ro-	4gn\	ro-
4C/	-ra-	.	4e\	-ra-	4e\	-ra-	4g\	-ra-
4C/	-te	.	4e\	-te	4e\	-te	4g\	-te
!	!	!	!	!	!	!	!LO:LB:g=original	!
=8	=8	=8	=8	=8	=8	=8	=8	=8
!	!LO:MO:mod=cae-	!	!	!LO:MO:mod=cae-	!	!LO:MO:mod=cae-	!	!LO:MO:mod=cae-
2[GG/	ce-	.	2d\	ce-	2g\	ce-	2b\	ce-
4C/	-li	.	4e\	-li	4g\	-li	4cc\	-li
4C/	ro-	.	4e\	ro-	4g\	ro-	4cc\	ro-
=9	=9	=9	=9	=9	=9	=9	=9	=9
4C/	-ra-	.	4e\	-ra-	4g\	-ra-	4cc\	-ra-
4GG/	-te	.	8d\	-te	4g\	-te	4b\	-te
.	.	.	8d\	ro-	.	.	.	.
4r	.	.	4c\	-ra-	4r	.	4r	.
4GG/	ro-	.	4d\	-te	4g\	ro-	4b\	ro-
!	!	!	!LO:LB:g=original	!	!LO:LB:g=original	!	!	!
=10	=10	=10	=10	=10	=10	=10	=10	=10
!	!	!	!	!LO:MO:mod=cae-	!	!	!	!
4C/	-ra-	.	4e\	ce-	4g\	-ra-	4cc\	-ra-
4D/	-te	.	8d\	-li	4fn\	-te	4b\	-te
.	.	.	8d\	ro-	.	.	.	.
!	!LO:MO:mod=cae-	!	!	!	!	!LO:SIC:v:l:o=ce-	!	!LO:MO:mod=cae-
4E/	ce-	.	4c\	-ra-	4g\	cae-	4cc\	ce-
4D/	-li	.	4d\	-te	4f\	-li	4b\	-li
!LO:LB:g=original	!	!	!	!	!	!	!	!
=11	=11	=11	=11	=11	=11	=11	=11	=11
!	!	!	!	!LO:MO:mod=cae-	!	!	!	!
4r	.	.	4e\	ce-	4r	.	4r	.
4D\	ro-	.	4d\	-li	4f\	ro-	4b\	ro-
4E\	-ra-	.	4r	.	4g\	-ra-	4cc\	-ra-
4D\	-te	.	4d\	ro-	4f\	-te	4b\	-te
=12	=12	=12	=12	=12	=12	=12	=12	=12
!	!LO:MO:mod=cae-	!	!	!	!	!LO:MO:mod=cae-	!	!LO:MO:mod=cae-
4C/	ce-	.	4e\	-ra-	4g\	ce-	4cc\	ce-
4F\	-li	.	(>8f\L	-te	4a\	-li	(>8dd\L	-li
.	.	.	8e\J)	.	.	.	8cc\J)	.
4G\	de-	.	4.d\	de-	4.g\	de-	4b\	de-
4GG/	-su-	.	.	.	.	.	4b\	-su-
.	.	.	8d\	-su-	8g\	-su-	.	.
!	!	!	!	!	!	!	!LO:LB:g=original	!
=13	=13	=13	=13	=13	=13	=13	=13	=13
!LO:TX:a:i:t=solo.	!	!	!	!	!	!	!	!
4C/	-per	.	4e\	-per	4g\	-per	4cc\	-per
!LO:TX:a:t=P:problem=w źródle "p." zapisane na pięciolinii	!	!	!	!	!	!	!	!
!	!	!LO:DY:rj	!	!	!	!	!	!
!	!	!LO:DY:b:t=p.	!	!	!	!	!	!
4A\	ro-	p	4A\	ro-	4a\	ro-	4ee\	ro-
4A\	-ra-	.	4A\	-ra-	4a\	-ra-	4ee\	-ra-
4B-X\	-te	.	4B-X\	-te	4a\	-te	4ff\	-te
=14	=14	=14	=14	=14	=14	=14	=14	=14
!	!LO:MO:mod=cae-	!	!	!LO:MO:mod=cae-	!	!LO:MO:mod=cae-	!	!LO:MO:mod=cae-
(>4c\	ce-	.	(>4c\	ce-	2a\	ce-	2ee\	ce-
4A\)	.	.	4A\)	.	.	.	.	.
4d\	-li	.	4d\	-li	4a\	-li	4ff\	-li
4d\	ro-	.	4d\	ro-	4a\	ro-	4ff\	ro-
!	!	!	!LO:LB:g=original	!	!LO:LB:g=original	!	!	!
=15	=15	=15	=15	=15	=15	=15	=15	=15
4c\	-ra-	.	4c\	-ra-	4a\	-ra-	4ee\	-ra-
4d\	-te	.	4d\	-te	4a\	-te	(>8dd\L	-te
.	.	.	.	.	.	.	8ee\J)	.
4e\	de-	.	4e\	de-	4a\	de-	4cc\	de-
4E\	-su-	.	4E/	-su-	4g#X\	-su-	4b\	-su-
=16	=16	=16	=16	=16	=16	=16	=16	=16
4A\	-per	.	4A\	-per	4a\	-per	4a\	-per
4A\	et	.	4c\	et	4e\	et	4a\	et
4A\	nu-	.	4c\	nu-	4e\	nu-	4a\	nu-
4E\	-bes	.	4B\	-bes	4e\	-bes	4g#X\	-bes
!LO:LB:g=original	!	!	!	!	!	!	!LO:LB:g=original	!
=17	=17	=17	=17	=17	=17	=17	=17	=17
2A\	plu-	.	2c\	plu-	2e\	plu-	2a\	plu-
4F\	-ant	.	2d\	-ant	2fn\	-ant	2a\	-ant
4D\	et	.	.	.	.	.	.	.
=18	=18	=18	=18	=18	=18	=18	=18	=18
2G\	nu-	.	2d\	nu-	2g\	nu-	2b\	nu-
(>4E\	-bes	.	2e\	-bes	(>4g\	-bes	2cc\	-bes
4C/)	.	.	.	.	4e\)	.	.	.
=19	=19	=19	=19	=19	=19	=19	=19	=19
2F\	plu-	.	2A\	plu-	(>4c\	plu-	(>4a\	plu-
.	.	.	.	.	4f\)	.	4dd\)	.
2G\	.	.	2B\	-ant	(>4d\	-ant	(>4b\	-ant
.	.	.	.	.	4g\)	.	4ee\)	.
=20	=20	=20	=20	=20	=20	=20	=20	=20
2A\	.	.	2c\	nu-	(>4e\	nu-	(>4cc\	nu-
.	.	.	.	.	4a\)	.	4ff\)	.
2B\	-ant	.	2d\	-bes	(>4f\	-bes	(>4dd\	-bes
.	.	.	.	.	4b\)	.	4gg\)	.
!	!	!	!	!	!LO:LB:g=original	!	!	!
=21	=21	=21	=21	=21	=21	=21	=21	=21
4c\	plu-	.	4c\	plu-	4g\	plu-	4ee\	plu-
4F\	-ant	.	4c\	-ant	4a\	-ant	4ff\	-ant
!	!	!	!	!	!	!	!LO:TX:a:t=P:problem=w źródle ta adnotacja zapisana za taktem 21, na pięciolinii	!
!	!	!	!	!	!	!	!LO:TX:b:i:t=V&colon; S&colon;	!
2G\	iu-	.	2B\	iu-	2g\	ju-	2dd\	ju-
!	!	!	!LO:LB:g=original	!	!	!	!LO:PB:g=original	!
=22	=22	=22	=22	=22	=22	=22	=22	=22
4C/	-stum	.	4c\	-stum	4g\	-stum	4ee\	-stum
4c\	a-	.	4c\	a-	4g\	a-	4ee\	a-
4c\	-pe-	.	4c\	-pe-	4g\	-pe-	4ee\	-pe-
4c\	-ri-	.	4c\	-ri-	4g\	-ri-	4ee\	-ri-
=23	=23	=23	=23	=23	=23	=23	=23	=23
4B\	-a-	.	(>4d\	-a-	(>2.g\	-a-	(>4dd\	-a-
4c\	.	.	4c\	.	.	.	4ee\	.
4B\	.	.	4B\	.	.	.	4dd\	.
4A\	.	.	4c\)	.	4f#X\)	.	4cc\)	.
!LO:LB:g=original	!	!	!	!	!	!	!	!
=24	=24	=24	=24	=24	=24	=24	=24	=24
4G\	-tur	.	4d\	-tur	4g\	-tur	4b\	-tur
4G\	a-	.	4d\	a-	4g\	a-	4b\	a-
4G\	-pe-	.	4d\	-pe-	4g\	-pe-	4b\	-pe-
4G\	-ri-	.	4d\	-ri-	4g\	-ri-	4b\	-ri-
=25	=25	=25	=25	=25	=25	=25	=25	=25
4E\	-a-	.	(>4e\	-a-	(>4g\	-a-	(>2.cc\	-a-
4F\	.	.	2c\	.	4a\	.	.	.
4E\	.	.	.	.	4g\	.	.	.
4D\	.	.	4d\)	.	4fn\)	.	4b\)	.
=26	=26	=26	=26	=26	=26	=26	=26	=26
4C/	-tur	.	4e\	tur	4e\	-tur	4cc\	-tur
4c\	a-	.	4e\	a-	4g\	a-	4cc\	a-
4B\	-pe-	.	4d\	-pe-	4g\	-pe-	4dd\	-pe-
4c\	-ri-	.	4e\	-ri-	4g\	-ri-	4cc\	-ri-
!	!	!	!	!	!LO:LB:g=original	!	!LO:LB:g=original	!
=27	=27	=27	=27	=27	=27	=27	=27	=27
4A\	-a-	.	4e\	-a-	4a\	-a-	4cc\	-a-
4A\	-tur	.	4e\	-tur	4f#X\	-tur	4cc\	-tur
2B\	ter-	.	2d#X\	ter-	2f#\	ter-	2b\	ter-
!	!	!	!LO:LB:g=original	!	!	!	!	!
=28	=28	=28	=28	=28	=28	=28	=28	=28
2E\	-ra	.	2e\	-ra	2g#X\	-ra	2b\	-ra
2r	.	.	2r	.	2r	.	2ee\	et
=29	=29	=29	=29	=29	=29	=29	=29	=29
2r	.	.	2r	.	2r	.	(>4.ee\	ger-
.	.	.	.	.	.	.	8dd\)	.
2A\	et	.	2c\	et	2e\	et	(>4.cc\	-mi-
.	.	.	.	.	.	.	8b\)	.
=30	=30	=30	=30	=30	=30	=30	=30	=30
(>4.A\	ger-	.	(>2c\	ger-	(>2e\	ger-	2a\	-net
8G\)	.	.	.	.	.	.	.	.
(>4.F\	-mi-	.	4.d\)	.	4.fn\)	.	2r	.
8E\)	.	.	8d\	-mi-	8f\	-mi-	.	.
!LO:LB:g=original	!	!	!	!	!	!	!	!
=31	=31	=31	=31	=31	=31	=31	=31	=31
2D\	-net	.	2d\	-net	2f\	-net	2r	.
2r	.	.	2r	.	2r	.	2dd\	et
=32	=32	=32	=32	=32	=32	=32	=32	=32
2r	.	.	2r	.	2r	.	(>4.dd\	ger-
.	.	.	.	.	.	.	8cc\)	.
2G\	et	.	2B\	et	2d\	et	(>4.b\	-mi-
.	.	.	.	.	.	.	8a\)	.
!	!	!	!	!	!	!	!LO:LB:g=original	!
=33	=33	=33	=33	=33	=33	=33	=33	=33
(>4.G\	ger-	.	(>2B\	ger-	(>2d\	ger-	2g\	-net
8F\)	.	.	.	.	.	.	.	.
(>4.E\	-mi-	.	4.c\)	.	4.e\)	.	4.g\	ger-
8D\)	.	.	8c\	mi-	8e\	-mi-	8g\	-mi-
=34	=34	=34	=34	=34	=34	=34	=34	=34
2C/	-net	.	2c\	-net	2e\	-net	2g\	-net
2c\	et	.	2c\	et	2g\	et	2ee\	et
!	!	!	!	!	!LO:LB:g=original	!	!	!
=35	=35	=35	=35	=35	=35	=35	=35	=35
4.A\	ger-	.	4.c\	ger-	4.a\	ger-	4.ee\	ger-
8A\	-mi-	.	8c\	-mi-	8a\	-mi-	8ee\	-mi-
2B\	-net	.	2B\	-net	2g#X\	-net	2dd\	-net
!	!	!	!LO:LB:g=original	!	!	!	!	!
=36	=36	=36	=36	=36	=36	=36	=36	=36
2c\	sal-	.	2A\	sal-	2a\	Sal-	2ee\	sal-
2A\	-va-	.	2c\	-va-	(>4a\	-va-	(>4ff#X\	-va-
.	.	.	.	.	4gn\)	.	4ee\)	.
=37	=37	=37	=37	=37	=37	=37	=37	=37
2B\	-to-	.	1B	-to-	1f#X	-to-	(>2ee\	-to-
2BB/	.	.	.	.	.	.	2dd#X\)	.
=38	=38	=38	=38	=38	=38	=38	=38	=38
2E\	-rem	.	2B\	-rem	2g#X\	-rem	2ee\	-rem
4A\	sal-	.	4A/	sal-	2e\	sal-	4cc\	sal-
4E\	-va-	.	4G#X/	-va-	.	.	4b\	-va-
!LO:LB:g=original	!	!	!	!	!	!	!LO:LB:g=original	!
=39	=39	=39	=39	=39	=39	=39	=39	=39
2A\	-to-	.	2A\	-to-	1e	-va-	2cc\	-to-
2Gn\	.	.	2B\	.	.	.	2b\	.
=40	=40	=40	=40	=40	=40	=40	=40	=40
1F	.	.	2c\	.	(>2e\	-to-	1a	.
.	.	.	2A\	.	2d\)	.	.	.
=41	=41	=41	=41	=41	=41	=41	=41	=41
!	!	!	!LO:TX:a:t=P:problem=w źródle ta adnotacja zapisana za taktem 41, na pięciolinii	!	!	!	!	!
!	!	!	!LO:TX:b:i:t=V&colon; S&colon;	!	!	!	!	!
1E	-rem	.	1B	-rem.	1e	-rem.	1g#X	-rem.
!	!	!	!LO:PB:g=original	!	!	!	!	!
==42	==42	==42	==42	==42	==42	==42	==42	==42
*M3/2	*	*	*M3/2	*	*M3/2	*	*M3/2	*
*	*	*	*	*	*	*	*rscale:1/2	*
!	!	!	!	!	!	!	!LO:TX:t=P:problem=w źródle metrum 3/4, ale w pozostałych głosach metrum 3/2; użyto rscale	!
2c\	Be-	.	2c\	Be-	2e\	Be-	2gn\	Be-
2c\	-ne-	.	2e\	-ni-	2e\	-ne-	2g\	-ne-
2c\	-di-	.	2e\	-di-	2e\	-di-	2g\	-di-
!	!	!	!	!	!LO:LB:g=original	!	!	!
=43	=43	=43	=43	=43	=43	=43	=43	=43
1G	-xi-	.	1B	-xi-	1d	-xi-	1g	-xi-
2c\	-sti	.	2c\	-sti	2e\	-sti	2g\	-sti
=44	=44	=44	=44	=44	=44	=44	=44	=44
1A	Do-	.	1c	Do-	1e	Do-	1g	Do-
2A\	-mi-	.	2A\	-mi-	2c\	-mi-	2f#X/	-mi-
=45	=45	=45	=45	=45	=45	=45	=45	=45
1G	-ne	.	1B	-ne	1d	-ne	1g	-ne
2A\	ter-	.	2A\	ter-	2c\	ter-	2ee\	ter-
!	!	!	!	!	!	!	!LO:LB:g=original	!
=46	=46	=46	=46	=46	=46	=46	=46	=46
2D\	-ram	.	2A\	-ram	2f\	-ram	(>4dd\	-ram
.	.	.	.	.	.	.	4cc\)	.
1E	tu-	.	2A\	tu-	1e	tu-	1b	tu-
.	.	.	2G#X/	.	.	.	.	.
!LO:LB:g=original	!	!	!	!	!	!	!	!
=47	=47	=47	=47	=47	=47	=47	=47	=47
2AA/	-am	.	2A\	-am	2e\	-am	2cc\	-am
2A\	a-	.	2A\	a-	2e\	a-	2cc\	a-
2G\	-ver-	.	2B\	-ver-	2e\	-ver-	2b\	-ver-
=48	=48	=48	=48	=48	=48	=48	=48	=48
1.F	-ti-	.	1.A	-ti-	(>1e	-ti-	(>1cc	-ti-
.	.	.	.	.	2d\)	.	2a\)	.
!	!	!	!LO:LB:g=original	!	!	!	!	!
=49	=49	=49	=49	=49	=49	=49	=49	=49
2.E\	-sti	.	2.G/	-sti	2.e\	-sti	2.b\	-sti
4E\	ca-	.	4G/	ca-	4e\	ca-	4b\	ca-
4A\	-pti-	.	4A/	-pti-	4e\	-pti-	4cc\	-pti-
4E\	-vi-	.	4G/	-vi-	4e\	-vi-	4b\	-vi-
!	!	!	!	!	!LO:LB:g=original	!	!	!
=50	=50	=50	=50	=50	=50	=50	=50	=50
4A\	-ta-	.	4A\	-ta-	4e\	-ta-	4cc\	-ta-
4D\	-tem	.	4B\	-tem	4f\	-tem	4dd\	-tem
1E	Ja-	.	1G#X	Ja-	1e	Ja-	1b	Ja-
!	!	!	!	!	!	!	!LO:LB:g=original	!
=51	=51	=51	=51	=51	=51	=51	=51	=51
!LO:TX:a:i:t=Solo.	!	!	!	!	!	!	!	!
2AA/	-cob	.	2A\	-cob	2e\	-cob	2cc\	-cob
2c\	glo-	.	2c\	glo-	2e\	Glo-	2g\	glo-
4c\	-ri-	.	4c\	-ri-	4e\	-ri-	4g\	-ri-
4c\	-a	.	4c\	-a	4e\	-a	4g\	-a
=52	=52	=52	=52	=52	=52	=52	=52	=52
1c	pa-	.	1c	pa-	1f#X	pa-	1a	pa-
2B\	-tri	.	2B\	-tri	2g\	-tri	2b\	-tri
!LO:LB:g=original	!	!	!	!	!	!	!	!
=53	=53	=53	=53	=53	=53	=53	=53	=53
2A\	glo-	.	2A\	glo-	2g\	et	2cc\	et
2d\	-ri-	.	2d\	-ri-	2.g\	fi-	2.a\	fi-
!	!	!	!LO:SIC:s:v=F#	!	!	!	!	!
2F#X\	-a	.	2F/	-a	.	.	.	.
.	.	.	.	.	4f#X\	-li-	4a\	-li-
=54	=54	=54	=54	=54	=54	=54	=54	=54
2G\	fi-	.	2G/	fi-	2g\	-o	2b\	-o
2G\	-li-	.	2G/	-li-	2g\	et	2b\	et
2A\	-o	.	2A/	-o	2f#X\	spi-	2cc\	spi-
!	!	!	!LO:LB:g=original	!	!	!	!	!
=55	=55	=55	=55	=55	=55	=55	=55	=55
2B\	et	.	2B\	et	2.g\	-ri-	2.dd\	-ri-
4B\	spi-	.	4B\	spi-	.	.	.	.
4B\	-ri-	.	4B\	-ri-	4g\	-tu-	4dd\	-tu-
2c\	-tu-	.	2c\	-tu-	2g\	-i	2ee\	-i
!	!	!	!	!	!LO:LB:g=original	!	!LO:LB:g=original	!
=56	=56	=56	=56	=56	=56	=56	=56	=56
2A\	-i	.	2A\	-i	(>4a\	san-	(>1ee	san-
.	.	.	.	.	4g\	.	.	.
2B\	san-	.	(>2B\	san-	1f#X)	.	.	.
2BB/	.	.	2BB/)	.	.	.	2dd#X\)	.
=57	=57	=57	=57	=57	=57	=57	=57	=57
2E\	-cto	.	2E/	-cto	2g#X\	-cto	2ee\	-cto
!LO:TX:a:t=P:problem=w źródle "f." zapisane na pięciolinii	!	!	!	!	!	!	!	!
!	!	!LO:DY:rj	!	!	!	!	!	!
!	!	!LO:DY:b:t=f.	!	!	!	!	!	!
2E\	si-	f	2B\	si-	2gn\	si-	2cc\	si-
2E\	-cut	.	2B\	-cut	2g\	-cut	2cc\	-cut
=58	=58	=58	=58	=58	=58	=58	=58	=58
1Fn	e-	.	1A	e-	1fn	e-	1cc	e-
2F\	-rat	.	2A\	-rat	2f\	-rat	2cc\	-rat
!LO:LB:g=original	!	!	!	!	!	!	!	!
=59	=59	=59	=59	=59	=59	=59	=59	=59
2r	.	.	2r	.	2r	.	2r	.
2F#X\	in	.	2d\	in	2c\	in	2a\	in
2F#\	prin-	.	2d\	prin-	2c\	prin-	2a\	prin-
=60	=60	=60	=60	=60	=60	=60	=60	=60
2.G\	-ci-	.	2.d\	-ci-	2.Bn/	-ci-	2.b\	-ci-
4G\	-pi-	.	4d\	-pi-	4B/	-pi-	4b\	-pi-
!	!	!	!	!	!LO:TX:a:t=P:problem=w źródle ta adnotacja zapisana za taktem 60, na pięciolinii	!	!	!
!	!	!	!	!	!LO:TX:b:i:t=V&colon; S&colon;	!	!	!
2G\	-o	.	2d\	-o	2B/	-o,	2b\	-o
!	!	!	!LO:LB:g=original	!	!LO:PB:g=original	!	!	!
=61	=61	=61	=61	=61	=61	=61	=61	=61
2G#X\	et	.	2d\	et	2e\	et	2b\	et
2G#\	nunc	.	2d\	nunc	2e\	nunc	2b\	nunc
2G#\	et	.	2d\	et	2e\	et	2b\	et
!	!	!	!	!	!	!	!LO:LB:g=original	!
=62	=62	=62	=62	=62	=62	=62	=62	=62
2A\	sem-	.	2c\	sem-	2e\	sem-	2cc\	sem-
2A\	-per	.	2c\	-per	2e\	-per	2cc\	-per
2E\	et	.	2e\	et	2e\	et	2b\	et
=63	=63	=63	=63	=63	=63	=63	=63	=63
2A\	sem-	.	(>2c\	sem-	(>1e	sem-	(>1cc	sem-
1F	.	.	1A)	.	.	.	.	.
.	.	.	.	.	2d\)	.	2a\)	.
=64	=64	=64	=64	=64	=64	=64	=64	=64
2E\	-per	.	2G#X/	-per	2e\	-per	2b\	-per
2A\	et	.	2A/	et	2e\	et	2ee\	et
!LO:TX:a:t=P:problem=w źródle ta adnotacja zapisana za taktem 64, na pięciolinii	!	!	!	!	!	!	!	!
!LO:TX:b:i:t=V&colon; S&colon;	!	!	!	!	!	!	!	!
2B\	in	.	2G#/	in	2d\	in	2dd\	in
!LO:PB:g=original	!	!	!	!	!	!	!	!
=65	=65	=65	=65	=65	=65	=65	=65	=65
!	!LO:MO:mod=sae-	!	!	!LO:MO:mod=sae-	!	!LO:MO:mod=sae-	!	!LO:MO:mod=sae-
2.c\	se-	.	2.A/	se-	2.c\	se-	2.ee\	se-
4c\	-cu-	.	4A/	-cu-	4c\	-cu-	4ee\	-cu-
2B\	-la	.	2G#X/	-la	2c\	-la	2dd\	-la
=66	=66	=66	=66	=66	=66	=66	=66	=66
!	!LO:MO:mod=sae-	!	!	!LO:MO:mod=sae-	!	!LO:MO:mod=sae-	!	!LO:MO:mod=sae-
2.A\	se-	.	2.A/	se-	2.e\	se-	2.cc\	se-
4G\	-cu-	.	4A/	-cu-	4e\	-cu-	4cc\	-cu-
2F\	-lo-	.	2A/	-lo-	2f\	-lo-	2dd\	-lo-
!	!	!	!LO:LB:g=original	!	!LO:LB:g=original	!	!LO:LB:g=original	!
=67	=67	=67	=67	=67	=67	=67	=67	=67
2D\	-rum	.	2A\	-rum	2f\	-rum	(>4dd\L	-rum
.	.	.	.	.	.	.	4cc\)J	.
1E	a-	.	2A\	a-	1e	a-	1b	a-
.	.	.	2G#X/	.	.	.	.	.
=68	=68	=68	=68	=68	=68	=68	=68	=68
2AA/	-men	.	2A\	-men	2e\	-men	2cc\	-men
2A\	a-	.	2A\	a-	2e\	a-	2cc\	a-
2E\	-men	.	2G#X/	.	2e\	-men	2b\	-men
=69	=69	=69	=69	=69	=69	=69	=69	=69
2C/	a-	.	2A\	-men	(>2e\	a-	(>2cc\	a-
1D	.	.	1Fn	a-	1d)	.	1b)	.
=70	=70	=70	=70	=70	=70	=70	=70	=70
!	!	!	!	!	!	!	!LO:TX:a:t=P:problem=w źródle ta adnotacja zapisana za taktem 70, na pięciolinii	!
!	!	!	!	!	!	!	!LO:TX:b:i:t=Rorate Da Capo.	!
1.E	-men.	.	1.E	-men.	1.B	-men.	1.g#X	-men.
==	==	==	==	==	==	==	==	==
*-	*-	*-	*-	*-	*-	*-	*-	*-
!!!system-decoration: [(s1,s2,s3,s4)]
!!!RDF**kern: > = above
!!!RDF**kern: < = below
!!!EED: Antoni Szymański
!!!EEV: 2021-02-02
!!!ENC: Marcin Jachim
!!!END: 2021-01-27
